packages/ffe-icons/icons/open/300/sm/water_full.svg

<svg xmlns="http://www.w3.org/2000/svg" height="20" viewBox="0 -960 960 960" width="20"><path d="M455.231-622.001q-54.77 0-103.462 15.308t-92.846 48.538l41.384 379.385q.77 4.616 4.039 7.693 3.27 3.077 8.27 3.077h335.153q5 0 8.269-3.077 3.27-3.077 4.039-7.693l51.385-407.231h-33.154q-31.231 0-59.231-5t-69.615-16.615q-23.154-7.385-46.782-10.885-23.629-3.5-47.449-3.5Zm-208.616 9.156q46.616-29.77 99.447-45.462 52.832-15.692 108.087-15.692 28.697 0 56.505 4.307 27.807 4.308 54.423 12.308 32.538 9.385 60.615 14.385 28.077 5 52.231 5h40.231L736.308-792H223.307l23.308 179.155Zm66.671 496.844q-24.593 0-42.477-16.077-17.885-16.077-21.5-40l-77-603.768q-3.846-27.556 14.307-47.854 18.154-20.299 46.004-20.299h494.76q27.85 0 46.004 20.299 18.153 20.298 14.307 47.854l-76.615 603.768q-3.616 23.923-21.304 40t-42.28 16.077H313.286ZM455.231-168h204.846-359.77 154.924Z"/></svg>

<svg xmlns="http://www.w3.org/2000/svg" height="20" viewBox="0 -960 960 960" width="20"><path d="M455.23-622q-54.77 0-103.46 15.31-48.69 15.3-92.85 48.54l41.39 379.38q.77 4.62 4.04 7.69 3.27 3.08 8.27 3.08h335.15q5 0 8.27-3.08 3.27-3.07 4.04-7.69L711.46-586h-33.15q-31.23 0-59.23-5-28-5-69.62-16.62-23.15-7.38-46.78-10.88-23.63-3.5-47.45-3.5Zm-208.61 9.15q46.61-29.76 99.44-45.46Q398.89-674 454.15-674q28.7 0 56.5 4.31 27.81 4.31 54.43 12.31Q597.62-648 625.69-643q28.08 5 52.23 5h40.23l18.16-154h-513l23.31 179.15ZM313.29-116q-24.6 0-42.48-16.08-17.89-16.08-21.5-40l-77-603.77q-3.85-27.55 14.31-47.85 18.15-20.3 46-20.3h494.76q27.85 0 46 20.3 18.16 20.3 14.31 47.85l-76.61 603.77q-3.62 23.92-21.31 40Q672.08-116 647.49-116h-334.2Zm141.94-52H660.08 300.31 455.23Z"/></svg>
